img/payment/img4.svg

<svg width="64" height="18" viewBox="0 0 64 18" fill="none" xmlns="http://www.w3.org/2000/svg">
<path d="M0.5799 0.125423C2.50696 0.125423 4.45255 0.125423 6.37961 0.125423C7.28755 0.106893 8.1955 0.588654 8.69579 1.34836C9.15903 1.99689 9.32579 2.79366 9.56667 3.55337C10.2708 5.9066 10.9564 8.27837 11.6605 10.6316C11.679 10.854 11.994 10.9281 12.0496 10.7057C12.7723 8.31543 13.4579 5.94366 14.162 3.55337C14.4029 2.71954 14.6252 1.83013 15.1811 1.12601C15.5517 0.681305 16.052 0.366305 16.6079 0.21807C17.0896 0.0883639 17.5714 0.143952 18.0717 0.125423C19.7764 0.125423 21.4626 0.106889 23.1673 0.143948C23.1487 6.07336 23.1673 11.9843 23.1487 17.9137C21.3143 17.8951 19.4799 17.9322 17.6455 17.8951C17.6455 14.4116 17.6455 10.9466 17.6455 7.46307C17.627 7.14807 17.1267 7.18513 17.0896 7.46307C15.9964 10.9281 14.9031 14.4116 13.8099 17.8766C12.5128 17.9137 11.2158 17.8766 9.91873 17.8951C8.82549 14.4301 7.75079 10.9466 6.63902 7.4816C6.58343 7.20366 6.24991 7.18514 6.06461 7.3519C6.06461 10.8725 6.06461 14.3746 6.06461 17.8951C4.2302 17.9137 2.39578 17.8951 0.561371 17.9137C0.5799 11.9843 0.5799 6.05484 0.5799 0.125423ZM25.6873 0.143948C27.5217 0.106889 29.3561 0.162482 31.1905 0.125423C31.2276 3.64601 31.1905 7.1666 31.209 10.6687C31.3573 10.8169 31.6538 10.854 31.7464 10.6131C32.9693 8.05601 34.1738 5.49895 35.3967 2.92336C35.7858 2.1266 36.1008 1.27424 36.7308 0.625714C37.0088 0.366302 37.3608 0.106893 37.7685 0.125423C39.6399 0.125423 41.5114 0.106893 43.3829 0.125423C43.3829 6.05484 43.3829 11.9657 43.3829 17.8951C41.5485 17.9137 39.714 17.9137 37.8796 17.8951C37.8796 14.3931 37.8796 10.8725 37.8796 7.37042C37.8796 7.07395 37.3608 7.09248 37.3052 7.37042C36.1564 9.90896 35.0076 12.4475 33.8588 14.986C33.5067 15.7643 33.1732 16.5425 32.6358 17.2281C32.3393 17.5987 31.9132 17.9322 31.4129 17.9137C29.5043 17.9137 27.5958 17.9137 25.6873 17.9137C25.6873 11.9843 25.6873 6.07336 25.6873 0.143948ZM46.0696 8.25984C51.8323 8.22278 57.5949 8.25984 63.3576 8.24131C63.1723 9.03808 62.6535 9.72367 62.0976 10.3166C61.0229 11.484 59.4849 12.1881 57.8914 12.2251C55.7791 12.2437 53.6852 12.2251 51.5729 12.2251C51.5544 14.1151 51.5729 16.0051 51.5729 17.9137C49.7385 17.9137 47.9041 17.9137 46.0696 17.9137C46.0696 14.6896 46.0882 11.484 46.0696 8.25984Z" fill="#3DA536"/>
<path d="M45.3654 0.143555C49.6643 0.143555 53.9816 0.143555 58.2805 0.143555C59.4107 0.217672 60.504 0.680909 61.3934 1.3665C62.6905 2.38562 63.5613 3.92356 63.7096 5.57268C63.7466 6.16562 63.7281 6.75856 63.6355 7.35151C61.0043 7.37004 58.3546 7.35151 55.7234 7.35151C54.8155 7.35151 53.9075 7.38856 52.9996 7.25886C50.9799 6.99945 48.9787 6.16562 47.5334 4.68326C46.3475 3.46032 45.6063 1.82973 45.3654 0.143555Z" fill="#008CD2"/>
</svg>

<svg width="64" height="18" fill="none" xmlns="http://www.w3.org/2000/svg"><path d="M.58.125h5.8a2.768 2.768 0 012.316 1.223c.463.649.63 1.446.87 2.205.705 2.354 1.39 4.725 2.095 7.079.018.222.333.296.389.074.722-2.39 1.408-4.762 2.112-7.153.24-.833.463-1.723 1.02-2.427.37-.445.87-.76 1.426-.908.482-.13.963-.074 1.464-.093 1.704 0 3.39-.018 5.095.019-.018 5.93 0 11.84-.018 17.77-1.835-.019-3.67.018-5.504-.019V7.463c-.018-.315-.518-.278-.555 0-1.094 3.465-2.187 6.949-3.28 10.414-1.297.037-2.594 0-3.891.018-1.094-3.465-2.168-6.948-3.28-10.413-.056-.278-.39-.297-.574-.13v10.543c-1.835.019-3.67 0-5.504.019C.58 11.984.58 6.054.58.125zm25.107.019c1.835-.037 3.67.018 5.503-.019.038 3.521 0 7.042.019 10.544.148.148.445.185.537-.056 1.223-2.557 2.428-5.114 3.65-7.69.39-.796.705-1.649 1.335-2.297.278-.26.63-.52 1.038-.5 1.87 0 3.742-.02 5.614 0v17.77a271.39 271.39 0 01-5.503 0V7.37c0-.296-.52-.278-.575 0l-3.446 7.616c-.352.778-.686 1.556-1.223 2.242-.297.37-.723.704-1.223.686h-5.726V.144zM46.07 8.26c5.762-.037 11.525 0 17.288-.019-.186.797-.704 1.483-1.26 2.076a5.951 5.951 0 01-4.207 1.908c-2.112.019-4.206 0-6.318 0-.019 1.89 0 3.78 0 5.689H46.07c0-3.224.018-6.43 0-9.654z" fill="#3DA536"/><path d="M45.365.144h12.916c1.13.074 2.223.537 3.112 1.223 1.297 1.019 2.168 2.557 2.317 4.206a8.184 8.184 0 01-.075 1.779c-2.63.018-5.28 0-7.912 0-.907 0-1.816.037-2.723-.093-2.02-.26-4.021-1.093-5.467-2.576-1.186-1.223-1.927-2.853-2.168-4.54z" fill="#008CD2"/></svg>
